static/img/kroki/c14d1218f6f9f3276f756e5c5adcc99b.svg

<?xml version="1.0" encoding="us-ascii" standalone="no"?><svg xmlns="http://www.w3.org/2000/svg" xmlns:xlink="http://www.w3.org/1999/xlink" contentStyleType="text/css" height="252px" preserveAspectRatio="none" style="width:340px;height:252px;" version="1.1" viewBox="0 0 340 252" width="340px" zoomAndPan="magnify"><defs/><g><!--class aws_route53_resource_record--><g id="elem_aws_route53_resource_record"><rect codeLine="22" fill="#3D176E" height="39.7891" id="aws_route53_resource_record" rx="2.5" ry="2.5" style="stroke:#000D19;stroke-width:0.5;" width="292" x="24" y="206.58"/><ellipse cx="39" cy="226.4745" fill="#ADD1B2" rx="11" ry="11" style="stroke:#181818;stroke-width:1.0;"/><path d="M41.9688,232.1152 Q41.3906,232.412 40.75,232.5527 Q40.1094,232.7089 39.4063,232.7089 Q36.9063,232.7089 35.5781,231.0683 Q34.2656,229.412 34.2656,226.287 Q34.2656,223.162 35.5781,221.5058 Q36.9063,219.8495 39.4063,219.8495 Q40.1094,219.8495 40.75,220.0058 Q41.4063,220.162 41.9688,220.4589 L41.9688,223.1777 Q41.3438,222.5995 40.75,222.3339 Q40.1563,222.0527 39.5313,222.0527 Q38.1875,222.0527 37.5,223.1308 Q36.8125,224.1933 36.8125,226.287 Q36.8125,228.3808 37.5,229.4589 Q38.1875,230.5214 39.5313,230.5214 Q40.1563,230.5214 40.75,230.2558 Q41.3438,229.9745 41.9688,229.3964 L41.9688,232.1152 Z " fill="#000000"/><text fill="#D9B8FF" font-family="Helvetica" font-size="17" lengthAdjust="spacing" textLength="250" x="58" y="232.3598">aws_route53_resource_record</text></g><!--class aws_route53_resource_record_set--><g id="elem_aws_route53_resource_record_set"><rect codeLine="24" fill="#3D176E" height="39.7891" id="aws_route53_resource_record_set" rx="2.5" ry="2.5" style="stroke:#000D19;stroke-width:0.5;" width="326" x="7" y="106.79"/><ellipse cx="22" cy="126.6845" fill="#ADD1B2" rx="11" ry="11" style="stroke:#181818;stroke-width:1.0;"/><path d="M24.9688,132.3252 Q24.3906,132.622 23.75,132.7627 Q23.1094,132.9189 22.4063,132.9189 Q19.9063,132.9189 18.5781,131.2783 Q17.2656,129.622 17.2656,126.497 Q17.2656,123.372 18.5781,121.7158 Q19.9063,120.0595 22.4063,120.0595 Q23.1094,120.0595 23.75,120.2158 Q24.4063,120.372 24.9688,120.6689 L24.9688,123.3877 Q24.3438,122.8095 23.75,122.5439 Q23.1563,122.2627 22.5313,122.2627 Q21.1875,122.2627 20.5,123.3408 Q19.8125,124.4033 19.8125,126.497 Q19.8125,128.5908 20.5,129.6689 Q21.1875,130.7314 22.5313,130.7314 Q23.1563,130.7314 23.75,130.4658 Q24.3438,130.1845 24.9688,129.6064 L24.9688,132.3252 Z " fill="#000000"/><text fill="#D9B8FF" font-family="Helvetica" font-size="17" lengthAdjust="spacing" textLength="284" x="41" y="132.5698">aws_route53_resource_record_set</text></g><!--class aws_route53_zone--><g id="elem_aws_route53_zone"><rect codeLine="26" fill="#3D176E" height="39.7891" id="aws_route53_zone" rx="2.5" ry="2.5" style="stroke:#000D19;stroke-width:0.5;" width="199" x="70.5" y="7"/><ellipse cx="85.5" cy="26.8945" fill="#ADD1B2" rx="11" ry="11" style="stroke:#181818;stroke-width:1.0;"/><path d="M88.4688,32.5352 Q87.8906,32.832 87.25,32.9727 Q86.6094,33.1289 85.9063,33.1289 Q83.4063,33.1289 82.0781,31.4883 Q80.7656,29.832 80.7656,26.707 Q80.7656,23.582 82.0781,21.9258 Q83.4063,20.2695 85.9063,20.2695 Q86.6094,20.2695 87.25,20.4258 Q87.9063,20.582 88.4688,20.8789 L88.4688,23.5977 Q87.8438,23.0195 87.25,22.7539 Q86.6563,22.4727 86.0313,22.4727 Q84.6875,22.4727 84,23.5508 Q83.3125,24.6133 83.3125,26.707 Q83.3125,28.8008 84,29.8789 Q84.6875,30.9414 86.0313,30.9414 Q86.6563,30.9414 87.25,30.6758 Q87.8438,30.3945 88.4688,29.8164 L88.4688,32.5352 Z " fill="#000000"/><text fill="#D9B8FF" font-family="Helvetica" font-size="17" lengthAdjust="spacing" textLength="157" x="104.5" y="32.7798">aws_route53_zone</text></g><!--link aws_route53_resource_record_set to aws_route53_resource_record--><g id="link_aws_route53_resource_record_set_aws_route53_resource_record"><path codeLine="28" d="M170,147.01 C170,162.28 170,183.71 170,200.32 " fill="none" id="aws_route53_resource_record_set-to-aws_route53_resource_record" style="stroke:#1A83AF;stroke-width:2.0;"/><polygon fill="#1A83AF" points="170,205.2,174,196.2,170,200.2,166,196.2,170,205.2" style="stroke:#1A83AF;stroke-width:2.0;"/></g><!--link aws_route53_zone to aws_route53_resource_record_set--><g id="link_aws_route53_zone_aws_route53_resource_record_set"><path codeLine="29" d="M170,47.22 C170,62.49 170,83.92 170,100.53 " fill="none" id="aws_route53_zone-to-aws_route53_resource_record_set" style="stroke:#1A83AF;stroke-width:2.0;"/><polygon fill="#1A83AF" points="170,105.41,174,96.41,170,100.41,166,96.41,170,105.41" style="stroke:#1A83AF;stroke-width:2.0;"/></g><!--SRC=[ZP11IyD048Nl_HKBFHSIGqrp4MAXwAM8zIOIjhkpxT9ajynE3AtutqrQbJLf4s_3l6_clPcjbi2WsDE15L2i0Tt8xRJPS-G5In5jDRUvHJPMYgieReiBQsWGMF82s0Faxq1Qy3RnijLYPy0vTkD9zrpiDcXB8y_h2RbnjGI6F6gUS-TI8jJhai0B8vFrJAassLuwZcGOtq87ioW1lv4W26IOj951gzwxVucLFW8B_QSjBK4dPiVYHFMcR0WlPEVG7_rgnYSkfJORDlLwp-TCQ03_z5TRBctLq8hdphTn10YM3dkOTww2P2PLV15-l0QBvdECLowhHO9fb24uMwA0kX3rHzZ7w7EOoXpG5V9e3PoaeV79wpXCPr6wU9lSzNcDEjl_EzdOV040]--></g></svg>

<svg xmlns="http://www.w3.org/2000/svg" width="340" height="252" preserveAspectRatio="none" style="width:340px;height:252px"><rect width="292" height="39.789" x="24" y="206.58" fill="#3D176E" rx="2.5" ry="2.5" style="stroke:#000d19;stroke-width:.5"/><circle cx="39" cy="226.475" r="11" fill="#ADD1B2" style="stroke:#181818;stroke-width:1"/><path d="M41.969 232.115q-.578.297-1.219.438-.64.156-1.344.156-2.5 0-3.828-1.64-1.312-1.657-1.312-4.782t1.312-4.781q1.328-1.656 3.828-1.656.703 0 1.344.156.656.156 1.219.453v2.719q-.625-.578-1.219-.844-.594-.281-1.219-.281-1.343 0-2.031 1.078-.688 1.062-.688 3.156 0 2.094.688 3.172.688 1.062 2.031 1.062.625 0 1.219-.265.594-.281 1.219-.86v2.72Z"/><text x="58" y="232.36" fill="#D9B8FF" font-family="Helvetica" font-size="17" textLength="250">aws_route53_resource_record</text><rect width="326" height="39.789" x="7" y="106.79" fill="#3D176E" rx="2.5" ry="2.5" style="stroke:#000d19;stroke-width:.5"/><circle cx="22" cy="126.684" r="11" fill="#ADD1B2" style="stroke:#181818;stroke-width:1"/><path d="M24.969 132.325q-.578.297-1.219.438-.64.156-1.344.156-2.5 0-3.828-1.64-1.312-1.657-1.312-4.782t1.312-4.781q1.328-1.656 3.828-1.656.703 0 1.344.156.656.156 1.219.453v2.719q-.625-.579-1.219-.844-.594-.281-1.219-.281-1.343 0-2.031 1.078-.688 1.062-.688 3.156 0 2.094.688 3.172.688 1.062 2.031 1.062.625 0 1.219-.265.594-.281 1.219-.86v2.72Z"/><text x="41" y="132.57" fill="#D9B8FF" font-family="Helvetica" font-size="17" textLength="284">aws_route53_resource_record_set</text><rect width="199" height="39.789" x="70.5" y="7" fill="#3D176E" rx="2.5" ry="2.5" style="stroke:#000d19;stroke-width:.5"/><circle cx="85.5" cy="26.895" r="11" fill="#ADD1B2" style="stroke:#181818;stroke-width:1"/><path d="M88.469 32.535q-.578.297-1.219.438-.64.156-1.344.156-2.5 0-3.828-1.64-1.312-1.657-1.312-4.782t1.312-4.781q1.328-1.656 3.828-1.656.703 0 1.344.156.656.156 1.219.453v2.719q-.625-.578-1.219-.844-.594-.281-1.219-.281-1.344 0-2.031 1.078-.688 1.062-.688 3.156 0 2.094.688 3.172.688 1.062 2.031 1.062.625 0 1.219-.265.594-.281 1.219-.86v2.72Z"/><text x="104.5" y="32.78" fill="#D9B8FF" font-family="Helvetica" font-size="17" textLength="157">aws_route53_zone</text><path fill="none" d="M170 147.01v53.31" style="stroke:#1a83af;stroke-width:2"/><path fill="#1A83AF" d="m170 205.2 4-9-4 4-4-4 4 9z" style="stroke:#1a83af;stroke-width:2"/><path fill="none" d="M170 47.22v53.31" style="stroke:#1a83af;stroke-width:2"/><path fill="#1A83AF" d="m170 105.41 4-9-4 4-4-4 4 9z" style="stroke:#1a83af;stroke-width:2"/></svg>
